svgs/sharp-solid/crop-simple.svg

<svg xmlns="http://www.w3.org/2000/svg" viewBox="0 0 512 512"><!--! Font Awesome Pro 6.6.0 by @fontawesome - https://fontawesome.com License - https://fontawesome.com/license (Commercial License) Copyright 2024 Fonticons, Inc. --><path d="M128 32l0-32L64 0l0 32 0 32L32 64 0 64l0 64 32 0 32 0 0 288 0 32 32 0 224 0 32 0 0-64-32 0-192 0 0-256 0-64 0-32zM384 480l0 32 64 0 0-32 0-32 32 0 32 0 0-64-32 0-32 0 0-288 0-32-32 0L160 64l0 64 224 0 0 256 0 64 0 32z"/></svg>

<svg xmlns="http://www.w3.org/2000/svg" viewBox="0 0 512 512"><!--! Font Awesome Pro 6.4.0 by @fontawesome - https://fontawesome.com License - https://fontawesome.com/license (Commercial License) Copyright 2023 Fonticons, Inc. --><path d="M128 32V0H64V32 64H32 0v64H32 64V416v32H96 320h32V384H320 128V128 64 32zM384 480v32h64V480 448h32 32V384H480 448l0-288V64H416L160 64v64l224 0 0 256v64 32z"/></svg>
